X: 37
T:Boys of Malin, The
M:C|
L:1/8
R:Reel
K:A
ABcd eAce|fAdf edcB|ABcd eAce|fdBc dBcB|!
ABcd eAce|fAdf edcB|ABcd eAce|fdBc defg|]!
aA (3AAA eAce|a2ag fefg|aA (3AAA eAce|fdBc defg|!
aA (3AAA eAce|a2ag fefg|afge fdec|dcBc dBcB|]!
A2ce Aece|Aece dBcB|A2ce Aece|fdBc dBcB|!
A2ce Aece|Aece dBcB|A2ce Aece|fdBc dBcB|]!
